icons/outline/box-margin.svg

<!--
tags: [css, cascading, style, section, space, text, content, outside, container]
category: Design
version: "1.39"
unicode: "ee0b"
-->
<svg
  xmlns="http://www.w3.org/2000/svg"
  width="24"
  height="24"
  viewBox="0 0 24 24"
  fill="none"
  stroke="currentColor"
  stroke-width="2"
  stroke-linecap="round"
  stroke-linejoin="round"
>
  <path d="M8 8h8v8h-8zm-4 -4v.01m4 -.01v.01m4 -.01v.01m4 -.01v.01m4 -.01v.01m-16 15.99v.01m4 -.01v.01m4 -.01v.01m4 -.01v.01m4 -.01v.01m0 -4.01v.01m0 -4.01v.01m0 -4.01v.01m-16 7.99v.01m0 -4.01v.01m0 -4.01v.01" />
</svg>

<!--
tags: [css, cascading, style, section, space, text, content, outside, container]
category: Design
version: "1.39"
unicode: "ee0b"
-->
<svg
  xmlns="http://www.w3.org/2000/svg"
  width="24"
  height="24"
  viewBox="0 0 24 24"
  fill="none"
  stroke="currentColor"
  stroke-width="2"
  stroke-linecap="round"
  stroke-linejoin="round"
>
    <path d="M8 8h8v8h-8zM4 4v.01M8 4v.01M12 4v.01M16 4v.01M20 4v.01M4 20v.01M8 20v.01M12 20v.01M16 20v.01M20 20v.01M20 16v.01M20 12v.01M20 8v.01M4 16v.01M4 12v.01M4 8v.01" />
</svg>
